;FLAVOR:Marlin
;TIME:13624
;Filament used: 6.0203m
;Layer height: 0.12
;MINX:53.875
;MINY:65.088
;MINZ:0.12
;MAXX:181.125
;MAXY:169.943
;MAXZ:5.64
;Generated with Cura_SteamEngine 5.4.0
M140 S50
M105
M190 S50
M104 S200
M105
M109 S200
M82 ;absolute extrusion mode
; Ender 3 Custom Start G-code
G92 E0 ; Reset Extruder
G28 ; Home all axes
G1 Z2.0 F3000 ; Move Z Axis up little to prevent scratching of Heat Bed
G1 X0.1 Y20 Z0.3 F5000.0 ; Move to start position
G1 X0.1 Y200.0 Z0.3 F1500.0 E15 ; Draw the first line
G1 X0.4 Y200.0 Z0.3 F5000.0 ; Move to side a little
G1 X0.4 Y20 Z0.3 F1500.0 E30 ; Draw the second line
G92 E0 ; Reset Extruder
G1 Z2.0 F3000 ; Move Z Axis up little to prevent scratching of Heat Bed
G1 X5 Y20 Z0.3 F5000.0 ; Move over to prevent blob squish
G92 E0
G92 E0
G1 F2700 E-5
;LAYER_COUNT:47
;LAYER:0
M107
G0 F6000 X58.051 Y67.806 Z0.12
;TYPE:SKIRT
G1 F2700 E0
G1 F1200 X58.819 Y67.207 E0.01944
G1 X59.576 Y66.716 E0.03744
G1 X60.661 Y66.147 E0.06189
G1 X61.66 Y65.738 E0.08343
G1 X62.592 Y65.45 E0.1029
G1 X63.544 Y65.246 E0.12233
G1 X64.504 Y65.127 E0.14164
G1 X65.348 Y65.088 E0.1585
G1 X66.371 Y65.106 E0.17891
G1 X67.337 Y65.21 E0.1983
G1 X68.224 Y65.382 E0.21633
G1 X69.442 Y65.748 E0.24171
G1 X72.678 Y66.913 E0.31035
G1 X75.067 Y67.693 E0.3605
G1 X77.516 Y68.418 E0.41147
G1 X79.947 Y69.066 E0.46168
G1 X82.36 Y69.633 E0.51114
G1 X84.862 Y70.147 E0.56212
G1 X87.3 Y70.579 E0.61153
G1 X89.836 Y70.952 E0.66268
G1 X92.316 Y71.247 E0.71252
G1 X94.811 Y71.472 E0.76251
G1 X97.347 Y71.627 E0.81322
G1 X99.858 Y71.712 E0.86335
G1 X101.661 Y71.729 E0.89934
G1 X133.975 Y71.729 E1.5442
G1 X136.558 Y71.692 E1.59575
G1 X139.124 Y71.583 E1.647
G1 X141.603 Y71.407 E1.6966
G1 X144.104 Y71.16 E1.74675
G1 X146.612 Y70.839 E1.79721
G1 X149.095 Y70.449 E1.84737
G1 X151.535 Y69.995 E1.8969
G1 X154.03 Y69.458 E1.94783
G1 X156.476 Y68.859 E1.99808
G1 X158.888 Y68.197 E2.048
G1 X161.295 Y67.46 E2.09823
G1 X164.733 Y66.276 E2.17079
G1 X165.265 Y66.083 E2.18209
G1 X166.434 Y65.732 E2.20645
G1 X166.911 Y65.618 E2.21623
G1 X167.868 Y65.437 E2.23567
G1 X168.837 Y65.34 E2.2551
G1 X169.81 Y65.33 E2.27452
G1 X170.781 Y65.405 E2.29396
G1 X171.672 Y65.552 E2.31198
G1 X172.694 Y65.815 E2.33304
G1 X173.064 Y65.931 E2.34078
G1 X173.979 Y66.262 E2.36019
G1 X174.862 Y66.674 E2.37964
G1 X175.705 Y67.162 E2.39908
G1 X176.501 Y67.722 E2.4185
G1 X177.237 Y68.343 E2.43772
G1 X177.722 Y68.819 E2.45128
G1 X177.995 Y69.105 E2.45917
G1 X178.634 Y69.839 E2.47859
G1 X179.207 Y70.627 E2.49803
G1 X179.673 Y71.4 E2.51605
G1 X180.255 Y72.627 E2.54315
G1 X180.63 Y73.69 E2.56564
G1 X180.873 Y74.636 E2.58513
G1 X181.028 Y75.6 E2.60462
G1 X181.102 Y76.656 E2.62574
G1 X181.125 Y77.902 E2.65061
G1 X181.124 Y153.78 E4.16484
G1 X181.112 Y154.516 E4.17953
G1 X181.053 Y155.491 E4.19902
G1 X180.91 Y156.441 E4.21819
G1 X180.452 Y158.732 E4.26482
G1 X180.326 Y159.412 E4.27862
G1 X180.111 Y160.326 E4.29736
G1 X179.794 Y161.284 E4.31749
G1 X179.415 Y162.164 E4.33661
G1 X179.167 Y162.645 E4.34741
G1 X178.851 Y163.222 E4.36054
G1 X178.474 Y163.869 E4.37549
G1 X177.94 Y164.684 E4.39493
G1 X177.336 Y165.447 E4.41435
G1 X176.667 Y166.155 E4.43379
G1 X175.966 Y166.778 E4.4525
G1 X175.155 Y167.379 E4.47265
G1 X174.324 Y167.886 E4.49207
G1 X173.451 Y168.319 E4.51152
G1 X172.61 Y168.648 E4.52954
G1 X171.607 Y168.94 E4.55039
G1 X170.64 Y169.129 E4.57005
G1 X169.396 Y169.245 E4.59499
G1 X167.459 Y169.312 E4.63366
G1 X164.963 Y169.46 E4.68356
G1 X160.969 Y169.839 E4.76362
G1 X160.01 Y169.902 E4.7828
G1 X158.799 Y169.927 E4.80698
G1 X124.962 Y169.928 E5.48223
G1 X123.811 Y169.901 E5.50521
G1 X121.427 Y169.77 E5.55285
G1 X118.857 Y169.696 E5.60416
G1 X116.37 Y169.696 E5.65379
G1 X113.82 Y169.767 E5.7047
G1 X110.795 Y169.927 E5.76515
G1 X110.238 Y169.941 E5.77627
G1 X76.315 Y169.943 E6.45324
G1 X75.438 Y169.93 E6.47074
G1 X74.563 Y169.881 E6.48823
G1 X73.628 Y169.788 E6.50698
G1 X72.638 Y169.676 E6.52687
G1 X70.065 Y169.453 E6.57841
G1 X67.616 Y169.314 E6.62736
G1 X66.652 Y169.286 E6.6466
G1 X65.644 Y169.243 E6.66674
G1 X64.64 Y169.152 E6.68685
G1 X63.679 Y168.979 E6.70634
G1 X62.742 Y168.721 E6.72574
G1 X61.828 Y168.383 E6.74518
G1 X61.011 Y167.997 E6.76321
G1 X60.11 Y167.469 E6.78405
G1 X59.318 Y166.902 E6.80349
G1 X58.579 Y166.266 E6.82295
G1 X57.901 Y165.57 E6.84234
G1 X57.335 Y164.881 E6.86013
G1 X56.914 Y164.324 E6.87407
G1 X56.504 Y163.748 E6.88818
G1 X55.962 Y162.885 E6.90851
G1 X55.52 Y162.018 E6.92793
G1 X55.156 Y161.114 E6.94738
G1 X54.892 Y160.251 E6.96539
G1 X54.726 Y159.516 E6.98043
G1 X54.528 Y158.473 E7.00162
G1 X54.142 Y156.557 E7.04062
G1 X54.003 Y155.708 E7.05779
G1 X53.89 Y154.43 E7.08339
G1 X53.877 Y153.839 E7.09519
G1 X53.875 Y77.269 E8.62323
G1 X53.891 Y76.373 E8.64111
G1 X53.954 Y75.399 E8.66059
G1 X54.102 Y74.437 E8.68001
G1 X54.316 Y73.56 E8.69803
G1 X54.716 Y72.399 E8.72253
G1 X55.205 Y71.335 E8.7459
G1 X55.691 Y70.49 E8.76535
G1 X56.257 Y69.683 E8.78502
G1 X57.068 Y68.745 E8.80977
G1 X57.339 Y68.469 E8.81749
G1 X58.051 Y67.806 E8.8369
G0 F6000 X58.297 Y68.121
G1 F1200 X59.037 Y67.543 E8.85564
G1 X59.794 Y67.052 E8.87365
G1 X60.813 Y66.517 E8.89661
G1 X61.779 Y66.12 E8.91746
G1 X62.676 Y65.841 E8.9362
G1 X63.594 Y65.643 E8.95494
G1 X64.522 Y65.527 E8.97361
G1 X65.366 Y65.488 E8.99047
G1 X66.329 Y65.504 E9.00969
G1 X67.261 Y65.603 E9.02839
G1 X68.148 Y65.775 E9.04642
G1 X69.307 Y66.124 E9.07058
G1 X72.554 Y67.293 E9.13945
G1 X74.953 Y68.077 E9.18981
G1 X77.404 Y68.803 E9.24083
G1 X79.844 Y69.452 E9.29121
G1 X82.28 Y70.025 E9.34115
G1 X84.792 Y70.541 E9.39233
G1 X87.238 Y70.974 E9.4419
G1 X89.778 Y71.348 E9.49313
G1 X92.269 Y71.644 E9.5432
G1 X94.784 Y71.871 E9.59359
G1 X97.333 Y72.027 E9.64455
G1 X99.844 Y72.112 E9.69469
G1 X101.657 Y72.129 E9.73087
G1 X133.981 Y72.129 E10.37593
G1 X136.575 Y72.092 E10.4277
G1 X139.141 Y71.983 E10.47896
G1 X141.634 Y71.806 E10.52883
G1 X144.155 Y71.557 E10.57939
G1 X146.663 Y71.236 E10.62985
G1 X149.157 Y70.844 E10.68023
G1 X151.621 Y70.386 E10.73024
G1 X154.125 Y69.847 E10.78136
G1 X156.571 Y69.248 E10.83161
G1 X158.994 Y68.582 E10.88176
G1 X161.424 Y67.838 E10.93247
G1 X164.87 Y66.652 E11.0052
G1 X165.38 Y66.466 E11.01603
G1 X166.527 Y66.121 E11.03994
G1 X166.986 Y66.011 E11.04936
G1 X167.908 Y65.835 E11.06809
G1 X168.842 Y65.74 E11.08682
G1 X169.78 Y65.729 E11.10554
G1 X170.716 Y65.8 E11.12427
G1 X171.607 Y65.947 E11.1423
G1 X172.575 Y66.197 E11.16225
G1 X172.928 Y66.307 E11.16963
G1 X173.811 Y66.625 E11.18836
G1 X174.662 Y67.02 E11.20708
G1 X175.475 Y67.489 E11.22581
G1 X176.243 Y68.028 E11.24453
G1 X176.957 Y68.629 E11.26316
G1 X177.433 Y69.095 E11.27645
G1 X177.694 Y69.368 E11.28399
G1 X178.311 Y70.075 E11.30271
G1 X178.864 Y70.834 E11.32145
G1 X179.33 Y71.607 E11.33947
G1 X179.878 Y72.761 E11.36496
G1 X180.243 Y73.79 E11.38675
G1 X180.478 Y74.7 E11.4055
G1 X180.629 Y75.628 E11.42427
G1 X180.702 Y76.663 E11.44497
G1 X180.725 Y77.902 E11.4697
G1 X180.724 Y153.774 E12.98381
G1 X180.713 Y154.492 E12.99814
G1 X180.657 Y155.431 E13.01691
G1 X180.514 Y156.381 E13.03609
G1 X180.06 Y158.654 E13.08234
G1 X179.936 Y159.321 E13.09588
G1 X179.731 Y160.201 E13.11391
G1 X179.427 Y161.126 E13.13334
G1 X179.059 Y161.981 E13.15192
G1 X178.816 Y162.453 E13.16251
G1 X178.505 Y163.021 E13.17544
G1 X178.139 Y163.65 E13.18996
G1 X177.626 Y164.436 E13.20869
G1 X177.045 Y165.173 E13.22742
G1 X176.401 Y165.856 E13.24615
G1 X175.7 Y166.479 E13.26487
G1 X174.946 Y167.038 E13.2836
G1 X174.146 Y167.528 E13.30232
G1 X173.305 Y167.946 E13.32106
G1 X172.464 Y168.275 E13.33908
G1 X171.529 Y168.548 E13.35852
G1 X170.603 Y168.731 E13.37736
G1 X169.382 Y168.845 E13.40183
G1 X167.445 Y168.912 E13.44051
G1 X164.933 Y169.061 E13.49072
G1 X161.374 Y169.393 E13.56206
G1 X160.943 Y169.44 E13.57071
G1 X160.002 Y169.502 E13.58953
G1 X158.799 Y169.527 E13.61354
G1 X124.971 Y169.528 E14.28862
G1 X123.833 Y169.502 E14.31133
G1 X121.439 Y169.37 E14.35918
G1 X118.869 Y169.296 E14.41049
G1 X116.359 Y169.296 E14.46058
G1 X113.809 Y169.367 E14.51148
G1 X110.785 Y169.527 E14.57192
G1 X110.238 Y169.541 E14.58284
G1 X76.321 Y169.543 E15.25969
G1 X75.46 Y169.531 E15.27687
G1 X74.602 Y169.483 E15.29402
G1 X73.673 Y169.391 E15.31265
G1 X72.672 Y169.277 E15.33275
G1 X70.099 Y169.055 E15.38429
G1 X67.628 Y168.914 E15.43368
G1 X66.669 Y168.886 E15.45283
G1 X65.661 Y168.843 E15.47296
G1 X64.71 Y168.758 E15.49202
G1 X63.784 Y168.593 E15.51079
G1 X62.88 Y168.346 E15.52949
G1 X61.999 Y168.021 E15.54823
G1 X61.182 Y167.635 E15.56626
G1 X60.342 Y167.143 E15.58569
G1 X59.578 Y166.598 E15.60442
G1 X58.865 Y165.987 E15.62315
G1 X58.21 Y165.316 E15.64187
G1 X57.654 Y164.64 E15.65933
G1 X57.24 Y164.092 E15.67304
G1 X56.83 Y163.516 E15.68715
G1 X56.318 Y162.703 E15.70632
G1 X55.891 Y161.868 E15.72504
G1 X55.539 Y160.997 E15.74379
G1 X55.275 Y160.134 E15.7618
G1 X55.119 Y159.441 E15.77597
G1 X54.921 Y158.398 E15.79716
G1 X54.537 Y156.492 E15.83596
G1 X54.398 Y155.643 E15.85313
G1 X54.29 Y154.421 E15.87761
G1 X54.277 Y153.839 E15.88923
G1 X54.275 Y77.276 E17.41712
G1 X54.29 Y76.398 E17.43465
G1 X54.349 Y75.46 E17.4534
G1 X54.491 Y74.532 E17.47214
G1 X54.705 Y73.655 E17.49015
G1 X55.094 Y72.53 E17.51391
G1 X55.552 Y71.534 E17.53578
G1 X56.019 Y70.719 E17.55453
G1 X56.56 Y69.945 E17.57337
G1 X57.371 Y69.007 E17.59812
G1 X57.612 Y68.761 E17.60499
G1 X58.297 Y68.121 E17.6237
G0 F6000 X58.544 Y68.436
G1 F1200 X59.255 Y67.879 E17.64172
G1 X60.012 Y67.388 E17.65973
G1 X60.965 Y66.887 E17.68122
G1 X61.899 Y66.502 E17.70138
G1 X62.761 Y66.232 E17.7194
G1 X63.644 Y66.04 E17.73744
G1 X64.54 Y65.927 E17.75546
G1 X65.384 Y65.888 E17.77232
G1 X66.287 Y65.902 E17.79034
G1 X67.185 Y65.996 E17.80836
G1 X68.072 Y66.168 E17.82639
G1 X69.191 Y66.507 E17.84972
G1 X72.43 Y67.673 E17.91842
G1 X74.839 Y68.461 E17.969
G1 X77.293 Y69.188 E18.02008
G1 X79.741 Y69.838 E18.07062
G1 X82.2 Y70.417 E18.12104
G1 X84.722 Y70.935 E18.17242
G1 X87.176 Y71.369 E18.22215
G1 X89.72 Y71.744 E18.27347
G1 X92.222 Y72.041 E18.32375
G1 X94.757 Y72.27 E18.37454
G1 X97.319 Y72.427 E18.42577
G1 X99.83 Y72.512 E18.4759
G1 X101.653 Y72.529 E18.51229
G1 X133.987 Y72.529 E19.15755
G1 X136.592 Y72.492 E19.20954
G1 X139.158 Y72.383 E19.26079
G1 X141.665 Y72.205 E19.31095
G1 X144.206 Y71.954 E19.3619
G1 X146.714 Y71.633 E19.41236
G1 X149.219 Y71.239 E19.46296
G1 X151.706 Y70.777 E19.51344
G1 X154.22 Y70.236 E19.56476
G1 X156.666 Y69.637 E19.61502
G1 X159.1 Y68.967 E19.6654
G1 X161.553 Y68.216 E19.71659
G1 X165.007 Y67.028 E19.78948
G1 X165.496 Y66.849 E19.79988
G1 X166.62 Y66.51 E19.8233
G1 X167.062 Y66.404 E19.83237
G1 X167.949 Y66.233 E19.8504
G1 X168.847 Y66.14 E19.86842
G1 X169.75 Y66.128 E19.88644
G1 X170.651 Y66.195 E19.90447
G1 X171.542 Y66.342 E19.92249
G1 X172.457 Y66.579 E19.94135
G1 X172.793 Y66.683 E19.94837
G1 X173.643 Y66.988 E19.96639
G1 X174.463 Y67.367 E19.98442
G1 X175.246 Y67.817 E20.00244
G1 X175.986 Y68.334 E20.02046
G1 X176.677 Y68.915 E20.03847
G1 X177.144 Y69.372 E20.05151
G1 X177.393 Y69.632 E20.0587
G1 X177.988 Y70.311 E20.07671
G1 X178.521 Y71.041 E20.09475
G1 X178.987 Y71.814 E20.11276
G1 X179.516 Y72.932 E20.13745
G1 X179.856 Y73.891 E20.15775
G1 X180.083 Y74.765 E20.17577
G1 X180.23 Y75.656 E20.19379
G1 X180.302 Y76.67 E20.21408
G1 X180.325 Y77.902 E20.23867
G1 X180.324 Y153.768 E21.75266
G1 X180.314 Y154.469 E21.76665
G1 X180.261 Y155.371 E21.78468
G1 X180.118 Y156.321 E21.80385
G1 X179.668 Y158.576 E21.84974
G1 X179.546 Y159.23 E21.86302
G1 X179.341 Y160.11 E21.88105
G1 X179.06 Y160.968 E21.89907
G1 X178.703 Y161.798 E21.9171
G1 X178.465 Y162.261 E21.92749
G1 X178.159 Y162.82 E21.9402
G1 X177.804 Y163.432 E21.95432
G1 X177.312 Y164.189 E21.97234
G1 X176.754 Y164.899 E21.99036
G1 X176.135 Y165.557 E22.00839
G1 X175.461 Y166.158 E22.02641
G1 X174.737 Y166.697 E22.04442
G1 X173.967 Y167.17 E22.06246
G1 X173.159 Y167.573 E22.08047
G1 X172.318 Y167.902 E22.0985
G1 X171.451 Y168.156 E22.11653
G1 X170.566 Y168.333 E22.13454
G1 X169.368 Y168.445 E22.15855
G1 X167.431 Y168.512 E22.19723
G1 X164.903 Y168.662 E22.24776
G1 X161.33 Y168.995 E22.31938
G1 X160.917 Y169.041 E22.32767
G1 X159.994 Y169.102 E22.34613
G1 X158.799 Y169.127 E22.36998
G1 X124.98 Y169.128 E23.04488
G1 X123.855 Y169.103 E23.06733
G1 X121.451 Y168.97 E23.11538
G1 X118.881 Y168.896 E23.16669
G1 X116.348 Y168.896 E23.21724
G1 X113.798 Y168.967 E23.26814
G1 X110.775 Y169.127 E23.32856
G1 X110.238 Y169.141 E23.33928
G1 X76.326 Y169.143 E24.01603
G1 X75.482 Y169.132 E24.03287
G1 X74.641 Y169.085 E24.04968
G1 X73.719 Y168.994 E24.06817
G1 X72.706 Y168.878 E24.08852
G1 X70.133 Y168.657 E24.14005
G1 X67.64 Y168.514 E24.18989
G1 X66.686 Y168.486 E24.20893
G1 X65.678 Y168.443 E24.22907
G1 X64.779 Y168.364 E24.24708
G1 X63.889 Y168.207 E24.26511
G1 X63.018 Y167.971 E24.28312
G1 X62.17 Y167.659 E24.30115
G1 X61.353 Y167.273 E24.31918
G1 X60.574 Y166.817 E24.3372
G1 X59.838 Y166.294 E24.35521
G1 X59.151 Y165.707 E24.37325
G1 X58.519 Y165.062 E24.39127
G1 X57.973 Y164.399 E24.40841
G1 X57.566 Y163.86 E24.42189
G1 X57.156 Y163.284 E24.436
G1 X56.674 Y162.52 E24.45402
G1 X56.262 Y161.717 E24.47203
G1 X55.922 Y160.88 E24.49006
G1 X55.658 Y160.017 E24.50807
G1 X55.512 Y159.366 E24.52139
G1 X55.314 Y158.323 E24.54257
G1 X54.932 Y156.427 E24.58117
G1 X54.793 Y155.578 E24.59834
G1 X54.69 Y154.412 E24.6217
G1 X54.677 Y153.839 E24.63314
G1 X54.675 Y77.283 E26.16089
G1 X54.689 Y76.422 E26.17808
G1 X54.744 Y75.52 E26.19611
G1 X54.88 Y74.627 E26.21414
G1 X55.094 Y73.75 E26.23215
G1 X55.472 Y72.661 E26.25516
G1 X55.899 Y71.732 E26.27556
G1 X56.347 Y70.948 E26.29358
G1 X56.863 Y70.207 E26.3116
G1 X57.674 Y69.269 E26.33634
G1 X57.885 Y69.053 E26.34237
G1 X58.544 Y68.436 E26.36039
G1 F2700 E21.36039
G0 F6000 X64.257 Y154.505
G0 X64.408 Y154.871
G0 X64.649 Y155.189
G0 X65.925 Y155.972
G1 F2700 E26.36039
G1 F1200 X73.123 Y155.972 E26.50403
G1 X73.162 Y156.091 E26.50653
G1 X73.323 Y156.172 E26.51013
G1 X73.321 Y157.338 E26.53339
G1 X72.909 Y158.061 E26.55
G1 X66.198 Y158.062 E26.68393
G1 X65.725 Y157.409 E26.70002
G1 X65.725 Y156.172 E26.7247
G1 X65.844 Y156.133 E26.7272
G1 X65.925 Y155.972 E26.7308
G0 F6000 X66.162 Y156.372
G1 F1200 X72.875 Y156.372 E26.86476
G1 X72.923 Y156.409 E26.86597
G1 X72.921 Y157.233 E26.88242
G1 X72.677 Y157.661 E26.89225
G1 X66.402 Y157.662 E27.01747
G1 X66.125 Y157.279 E27.02691
G1 X66.125 Y156.42 E27.04405
G1 X66.162 Y156.372 E27.04526
G0 F6000 X66.525 Y156.772
G1 F1200 X72.522 Y156.772 E27.16493
G1 X72.522 Y157.126 E27.172
G1 X72.445 Y157.261 E27.1751
G1 X66.606 Y157.262 E27.29162
G1 X66.525 Y157.15 E27.29438
G1 X66.525 Y156.772 E27.30193
G1 F2700 E22.30193
G0 F6000 X75.53 Y159.607
G0 X110.569 Y159.607
G0 X111.061 Y159.484
G0 X113.725 Y157.409
G1 F2700 E27.30193
G1 F1200 X113.725 Y156.091 E27.32823
G1 X113.844 Y156.052 E27.33073
G1 X113.925 Y155.891 E27.33432
G1 X121.123 Y155.891 E27.47797
G1 X121.162 Y156.01 E27.48047
G1 X121.323 Y156.091 E27.48406
G1 X121.321 Y157.338 E27.50895
G1 X120.909 Y158.061 E27.52555
G1 X114.198 Y158.062 E27.65948
G1 X113.725 Y157.409 E27.67557
G0 F6000 X114.125 Y157.279
G1 F1200 X114.125 Y156.339 E27.69433
G1 X114.162 Y156.291 E27.69554
G1 X120.875 Y156.291 E27.8295
G1 X120.923 Y156.328 E27.83071
G1 X120.921 Y157.233 E27.84877
G1 X120.677 Y157.661 E27.85861
G1 X114.402 Y157.662 E27.98383
G1 X114.125 Y157.279 E27.99326
G0 F6000 X114.525 Y157.15
G1 F1200 X114.525 Y156.691 E28.00242
G1 X120.522 Y156.691 E28.1221
G1 X120.522 Y157.126 E28.13078
G1 X120.445 Y157.261 E28.13388
G1 X114.606 Y157.262 E28.2504
G1 X114.525 Y157.15 E28.25316
G1 F2700 E23.25316
G0 F6000 X124.248 Y159.592
