;FLAVOR:Marlin
;TIME:3993
;Filament used: 1.13709m
;Layer height: 0.12
;MINX:88.515
;MINY:81.751
;MINZ:0.12
;MAXX:146.482
;MAXY:153.249
;MAXZ:6
;Generated with Cura_SteamEngine 5.4.0
M140 S50
M105
M190 S50
M104 S200
M105
M109 S200
M82 ;absolute extrusion mode
; Ender 3 Custom Start G-code
G92 E0 ; Reset Extruder
G28 ; Home all axes
G1 Z2.0 F3000 ; Move Z Axis up little to prevent scratching of Heat Bed
G1 X0.1 Y20 Z0.3 F5000.0 ; Move to start position
G1 X0.1 Y200.0 Z0.3 F1500.0 E15 ; Draw the first line
G1 X0.4 Y200.0 Z0.3 F5000.0 ; Move to side a little
G1 X0.4 Y20 Z0.3 F1500.0 E30 ; Draw the second line
G92 E0 ; Reset Extruder
G1 Z2.0 F3000 ; Move Z Axis up little to prevent scratching of Heat Bed
G1 X5 Y20 Z0.3 F5000.0 ; Move over to prevent blob squish
G92 E0
G92 E0
G1 F2700 E-5
;LAYER_COUNT:50
;LAYER:0
M107
G0 F6000 X93.055 Y86.192 Z0.12
;TYPE:SKIRT
G1 F2700 E0
G1 F1200 X93.46 Y85.77 E0.01167
G1 X94.213 Y85.06 E0.03233
G1 X94.779 Y84.575 E0.0472
G1 X95.267 Y84.176 E0.05978
G1 X95.995 Y83.642 E0.0778
G1 X96.89 Y83.101 E0.09867
G1 X97.765 Y82.676 E0.11808
G1 X98.676 Y82.329 E0.13753
G1 X99.613 Y82.065 E0.15696
G1 X100.585 Y81.882 E0.1767
G1 X101.854 Y81.776 E0.20211
G1 X103.145 Y81.751 E0.22788
G1 X108.334 Y81.752 E0.33143
G1 X110.377 Y81.786 E0.37221
G1 X113.757 Y81.777 E0.43966
G1 X115.163 Y81.751 E0.46772
G1 X120.334 Y81.752 E0.57092
G1 X122.377 Y81.786 E0.61169
G1 X125.757 Y81.777 E0.67914
G1 X127.163 Y81.751 E0.70721
G1 X132.312 Y81.752 E0.80996
G1 X133.036 Y81.764 E0.82441
G1 X134.01 Y81.823 E0.84388
G1 X134.971 Y81.97 E0.86328
G1 X135.918 Y82.201 E0.88274
G1 X136.806 Y82.501 E0.90144
G1 X137.731 Y82.907 E0.9216
G1 X138.523 Y83.342 E0.93963
G1 X139.69 Y84.153 E0.96799
G1 X140.273 Y84.617 E0.98286
G1 X141.01 Y85.264 E1.00243
G1 X141.548 Y85.783 E1.01735
G1 X142.334 Y86.625 E1.04034
G1 X142.757 Y87.131 E1.0535
G1 X143.473 Y88.09 E1.07738
G1 X143.757 Y88.518 E1.08763
G1 X144.185 Y89.219 E1.10402
G1 X144.484 Y89.754 E1.11625
G1 X144.898 Y90.582 E1.13473
G1 X145.097 Y91.029 E1.14449
G1 X145.465 Y91.967 E1.1646
G1 X145.677 Y92.592 E1.17777
G1 X145.967 Y93.605 E1.1988
G1 X146.103 Y94.188 E1.21075
G1 X146.29 Y95.212 E1.23152
G1 X146.374 Y95.835 E1.24406
G1 X146.46 Y96.872 E1.26483
G1 X146.482 Y97.544 E1.27825
G1 X146.469 Y98.514 E1.29761
G1 X146.377 Y100.14 E1.33011
G1 X146.317 Y101.008 E1.34747
G1 X146.213 Y103.567 E1.39858
G1 X146.182 Y106.044 E1.44801
G1 X146.223 Y108.54 E1.49783
G1 X146.401 Y112.168 E1.57032
G1 X146.453 Y112.974 E1.58644
G1 X146.482 Y113.841 E1.60375
G1 X146.469 Y114.815 E1.62319
G1 X146.377 Y116.44 E1.65567
G1 X146.317 Y117.308 E1.67303
G1 X146.213 Y119.867 E1.72414
G1 X146.182 Y122.344 E1.77358
G1 X146.223 Y124.84 E1.82339
G1 X146.401 Y128.468 E1.89588
G1 X146.453 Y129.274 E1.912
G1 X146.482 Y130.145 E1.92939
G1 X146.462 Y131.24 E1.95125
G1 X146.416 Y131.896 E1.96437
G1 X146.276 Y133.03 E1.98717
G1 X146.183 Y133.547 E1.99765
G1 X145.98 Y134.456 E2.01624
G1 X145.819 Y135.053 E2.02858
G1 X145.527 Y135.966 E2.04771
G1 X145.297 Y136.592 E2.06102
G1 X144.989 Y137.337 E2.07711
G1 X144.27 Y138.909 E2.1116
G1 X143.243 Y141.264 E2.16287
G1 X142.283 Y143.646 E2.21412
G1 X141.767 Y145.006 E2.24315
G1 X141.318 Y146.026 E2.26539
G1 X140.935 Y146.758 E2.28188
G1 X140.651 Y147.257 E2.29334
G1 X140.121 Y148.096 E2.31314
G1 X139.529 Y148.869 E2.33257
G1 X138.872 Y149.587 E2.35199
G1 X138.153 Y150.245 E2.37144
G1 X137.384 Y150.832 E2.39075
G1 X136.685 Y151.282 E2.40734
G1 X135.937 Y151.722 E2.42466
G1 X135.107 Y152.161 E2.4434
G1 X134.178 Y152.553 E2.46352
G1 X133.25 Y152.848 E2.48295
G1 X132.299 Y153.06 E2.50239
G1 X131.341 Y153.187 E2.52168
G1 X130.592 Y153.228 E2.53665
G1 X129.403 Y153.249 E2.56038
G1 X105.268 Y153.248 E3.04202
G1 X104.504 Y153.236 E3.05727
G1 X103.532 Y153.178 E3.0767
G1 X102.568 Y153.032 E3.09616
G1 X101.607 Y152.797 E3.1159
G1 X100.386 Y152.361 E3.14177
G1 X99.824 Y152.119 E3.15398
G1 X98.949 Y151.692 E3.17341
G1 X98.115 Y151.19 E3.19284
G1 X97.354 Y150.635 E3.21164
G1 X96.488 Y149.868 E3.23472
G1 X96.003 Y149.388 E3.24834
G1 X95.342 Y148.673 E3.26777
G1 X94.746 Y147.901 E3.28723
G1 X94.218 Y147.072 E3.30685
G1 X93.676 Y146.004 E3.33075
G1 X93.237 Y144.978 E3.35302
G1 X92.204 Y142.313 E3.41006
G1 X91.225 Y139.993 E3.46031
G1 X89.915 Y137.109 E3.52352
G1 X89.591 Y136.304 E3.54084
G1 X89.471 Y135.971 E3.5479
G1 X89.278 Y135.382 E3.56027
G1 X89.131 Y134.879 E3.57073
G1 X88.918 Y134.024 E3.58831
G1 X88.806 Y133.475 E3.5995
G1 X88.688 Y132.789 E3.61339
G1 X88.634 Y132.396 E3.6213
G1 X88.554 Y131.568 E3.6379
G1 X88.533 Y131.218 E3.6449
G1 X88.515 Y130.493 E3.65937
G1 X88.521 Y129.832 E3.67256
G1 X88.541 Y129.309 E3.68301
G1 X88.587 Y128.537 E3.69844
G1 X88.637 Y127.915 E3.7109
G1 X88.76 Y125.443 E3.76029
G1 X88.816 Y122.885 E3.81135
G1 X88.8 Y120.375 E3.86144
G1 X88.712 Y117.872 E3.91142
G1 X88.611 Y116.348 E3.9419
G1 X88.607 Y116.162 E3.94561
G1 X88.533 Y114.92 E3.97044
G1 X88.515 Y114.193 E3.98495
G1 X88.521 Y113.532 E3.99815
G1 X88.541 Y113.009 E4.00859
G1 X88.587 Y112.237 E4.02402
G1 X88.637 Y111.615 E4.03648
G1 X88.76 Y109.143 E4.08587
G1 X88.816 Y106.585 E4.13693
G1 X88.8 Y104.075 E4.18702
G1 X88.712 Y101.572 E4.237
G1 X88.611 Y100.048 E4.26748
G1 X88.607 Y99.862 E4.27119
G1 X88.533 Y98.623 E4.29596
G1 X88.515 Y97.973 E4.30894
G1 X88.516 Y97.463 E4.31912
G1 X88.559 Y96.55 E4.33736
G1 X88.624 Y95.857 E4.35125
G1 X88.772 Y94.818 E4.37219
G1 X88.886 Y94.232 E4.3841
G1 X89.125 Y93.252 E4.40423
G1 X89.304 Y92.646 E4.41684
G1 X89.643 Y91.677 E4.43733
G1 X89.912 Y91.018 E4.45154
G1 X90.335 Y90.108 E4.47156
G1 X90.601 Y89.602 E4.48297
G1 X91.113 Y88.728 E4.50318
G1 X91.504 Y88.127 E4.51749
G1 X92.191 Y87.19 E4.54068
G1 X92.518 Y86.793 E4.55094
G1 X93.055 Y86.192 E4.56703
G0 F6000 X93.343 Y86.469
G1 F1200 X93.735 Y86.061 E4.57832
G1 X94.473 Y85.364 E4.59857
G1 X95.032 Y84.885 E4.61327
G1 X95.504 Y84.499 E4.62543
G1 X96.232 Y83.965 E4.64345
G1 X97.065 Y83.461 E4.66288
G1 X97.908 Y83.05 E4.6816
G1 X98.785 Y82.714 E4.70034
G1 X99.688 Y82.458 E4.71907
G1 X100.618 Y82.281 E4.73796
G1 X101.887 Y82.175 E4.76337
G1 X103.145 Y82.151 E4.78848
G1 X108.327 Y82.152 E4.89189
G1 X110.371 Y82.186 E4.93269
G1 X113.764 Y82.177 E5.0004
G1 X115.163 Y82.151 E5.02833
G1 X120.327 Y82.152 E5.13138
G1 X122.371 Y82.186 E5.17217
G1 X125.764 Y82.177 E5.23989
G1 X127.163 Y82.151 E5.26781
G1 X132.306 Y82.152 E5.37044
G1 X133.012 Y82.163 E5.38453
G1 X133.95 Y82.219 E5.40329
G1 X134.877 Y82.359 E5.422
G1 X135.79 Y82.58 E5.44074
G1 X136.646 Y82.868 E5.45876
G1 X137.538 Y83.258 E5.47819
G1 X138.33 Y83.693 E5.49622
G1 X139.441 Y84.466 E5.52323
G1 X140.009 Y84.918 E5.53772
G1 X140.732 Y85.552 E5.55691
G1 X141.27 Y86.071 E5.57183
G1 X142.027 Y86.882 E5.59397
G1 X142.45 Y87.388 E5.60713
G1 X143.14 Y88.312 E5.63014
G1 X143.416 Y88.727 E5.64009
G1 X143.836 Y89.414 E5.65616
G1 X144.126 Y89.933 E5.66802
G1 X144.533 Y90.745 E5.68615
G1 X144.725 Y91.175 E5.69555
G1 X145.086 Y92.095 E5.71527
G1 X145.298 Y92.72 E5.72844
G1 X145.578 Y93.696 E5.7487
G1 X145.71 Y94.26 E5.76026
G1 X145.894 Y95.265 E5.78065
G1 X145.975 Y95.868 E5.79279
G1 X146.06 Y96.885 E5.81316
G1 X146.082 Y97.539 E5.82622
G1 X146.07 Y98.491 E5.84522
G1 X145.978 Y100.112 E5.87762
G1 X145.917 Y100.992 E5.89522
G1 X145.813 Y103.551 E5.94633
G1 X145.782 Y106.039 E5.99598
G1 X145.823 Y108.56 E6.0463
G1 X146.002 Y112.188 E6.11879
G1 X146.053 Y112.988 E6.13479
G1 X146.082 Y113.836 E6.15172
G1 X146.07 Y114.792 E6.1708
G1 X145.978 Y116.412 E6.20318
G1 X145.917 Y117.292 E6.22078
G1 X145.813 Y119.851 E6.27189
G1 X145.782 Y122.339 E6.32155
G1 X145.823 Y124.86 E6.37186
G1 X146.002 Y128.488 E6.44435
G1 X146.053 Y129.288 E6.46035
G1 X146.082 Y130.138 E6.47732
G1 X146.063 Y131.212 E6.49876
G1 X146.019 Y131.847 E6.51146
G1 X145.882 Y132.959 E6.53382
G1 X145.789 Y133.476 E6.5443
G1 X145.594 Y134.352 E6.56221
G1 X145.438 Y134.931 E6.57418
G1 X145.152 Y135.828 E6.59297
G1 X144.927 Y136.439 E6.60596
G1 X144.625 Y137.171 E6.62176
G1 X143.906 Y138.743 E6.65626
G1 X142.876 Y141.104 E6.70766
G1 X141.912 Y143.496 E6.75913
G1 X141.401 Y144.845 E6.78792
G1 X140.964 Y145.84 E6.8096
G1 X140.587 Y146.56 E6.82582
G1 X140.303 Y147.059 E6.83728
G1 X139.803 Y147.853 E6.85601
G1 X139.234 Y148.599 E6.87473
G1 X138.601 Y149.292 E6.89346
G1 X137.91 Y149.927 E6.91219
G1 X137.167 Y150.496 E6.93086
G1 X136.482 Y150.937 E6.94712
G1 X135.75 Y151.368 E6.96407
G1 X134.92 Y151.807 E6.98281
G1 X134.056 Y152.172 E7.00153
G1 X133.162 Y152.458 E7.02026
G1 X132.246 Y152.664 E7.039
G1 X131.319 Y152.788 E7.05766
G1 X130.585 Y152.828 E7.07233
G1 X129.403 Y152.849 E7.09592
G1 X105.274 Y152.848 E7.57744
G1 X104.527 Y152.837 E7.59235
G1 X103.591 Y152.782 E7.61106
G1 X102.662 Y152.643 E7.62981
G1 X101.742 Y152.42 E7.6487
G1 X100.521 Y151.984 E7.67457
G1 X99.999 Y151.759 E7.68592
G1 X99.155 Y151.349 E7.70464
G1 X98.35 Y150.866 E7.72338
G1 X97.619 Y150.335 E7.74141
G1 X96.769 Y149.583 E7.76405
G1 X96.296 Y149.116 E7.77732
G1 X95.658 Y148.428 E7.79604
G1 X95.083 Y147.686 E7.81478
G1 X94.575 Y146.891 E7.8336
G1 X94.044 Y145.846 E7.857
G1 X93.61 Y144.833 E7.87899
G1 X92.573 Y142.157 E7.93626
G1 X91.594 Y139.837 E7.98651
G1 X90.286 Y136.959 E8.0496
G1 X89.967 Y136.169 E8.0666
G1 X89.851 Y135.846 E8.07345
G1 X89.662 Y135.27 E8.08555
G1 X89.519 Y134.782 E8.0957
G1 X89.31 Y133.944 E8.11293
G1 X89.2 Y133.407 E8.12387
G1 X89.084 Y132.734 E8.1375
G1 X89.032 Y132.357 E8.14509
G1 X88.953 Y131.544 E8.16139
G1 X88.933 Y131.208 E8.16811
G1 X88.915 Y130.497 E8.1823
G1 X88.921 Y129.847 E8.19528
G1 X88.94 Y129.333 E8.20554
G1 X88.986 Y128.569 E8.22081
G1 X89.036 Y127.947 E8.23327
G1 X89.16 Y125.463 E8.2829
G1 X89.216 Y122.894 E8.33418
G1 X89.2 Y120.372 E8.38451
G1 X89.112 Y117.858 E8.43471
G1 X89.011 Y116.339 E8.46509
G1 X89.007 Y116.153 E8.4688
G1 X88.933 Y114.91 E8.49365
G1 X88.915 Y114.197 E8.50789
G1 X88.921 Y113.547 E8.52086
G1 X88.94 Y113.033 E8.53112
G1 X88.986 Y112.269 E8.5464
G1 X89.036 Y111.647 E8.55885
G1 X89.16 Y109.163 E8.60848
G1 X89.216 Y106.594 E8.65976
G1 X89.2 Y104.072 E8.71009
G1 X89.112 Y101.558 E8.76029
G1 X89.011 Y100.039 E8.79067
G1 X89.007 Y99.853 E8.79438
G1 X88.933 Y98.612 E8.81919
G1 X88.915 Y97.974 E8.83193
G1 X88.916 Y97.482 E8.84175
G1 X88.959 Y96.569 E8.85999
G1 X89.02 Y95.913 E8.87314
G1 X89.165 Y94.894 E8.89368
G1 X89.275 Y94.327 E8.9052
G1 X89.509 Y93.365 E8.92496
G1 X89.682 Y92.778 E8.93717
G1 X90.021 Y91.809 E8.95766
G1 X90.275 Y91.186 E8.97109
G1 X90.689 Y90.294 E8.99071
G1 X90.946 Y89.804 E9.00175
G1 X91.448 Y88.946 E9.02159
G1 X91.827 Y88.364 E9.03545
G1 X92.514 Y87.427 E9.05864
G1 X92.817 Y87.059 E9.06815
G1 X93.343 Y86.469 E9.08392
G0 F6000 X93.632 Y86.746
G1 F1200 X94.01 Y86.352 E9.09482
G1 X94.733 Y85.668 E9.11468
G1 X95.285 Y85.195 E9.12919
G1 X95.741 Y84.822 E9.14094
G1 X96.469 Y84.288 E9.15896
G1 X97.241 Y83.82 E9.17698
G1 X98.052 Y83.423 E9.195
G1 X98.895 Y83.099 E9.21302
G1 X99.764 Y82.851 E9.23105
G1 X100.651 Y82.68 E9.24908
G1 X101.92 Y82.574 E9.27449
G1 X103.145 Y82.551 E9.29894
G1 X108.32 Y82.552 E9.40222
G1 X110.365 Y82.586 E9.44303
G1 X113.771 Y82.577 E9.511
G1 X115.163 Y82.551 E9.53879
G1 X120.32 Y82.552 E9.6417
G1 X122.365 Y82.586 E9.68252
G1 X125.771 Y82.577 E9.75049
G1 X127.163 Y82.551 E9.77827
G1 X132.3 Y82.552 E9.88078
G1 X132.989 Y82.562 E9.89454
G1 X133.891 Y82.615 E9.91257
G1 X134.784 Y82.748 E9.93058
G1 X135.662 Y82.959 E9.94861
G1 X136.518 Y83.247 E9.96663
G1 X137.345 Y83.609 E9.98464
G1 X138.137 Y84.044 E10.00268
G1 X139.192 Y84.779 E10.02834
G1 X139.745 Y85.219 E10.04244
G1 X140.468 Y85.853 E10.06163
G1 X140.978 Y86.344 E10.07576
G1 X141.72 Y87.139 E10.09746
G1 X142.13 Y87.628 E10.11019
G1 X142.807 Y88.533 E10.13275
G1 X143.075 Y88.936 E10.1424
G1 X143.487 Y89.609 E10.15815
G1 X143.768 Y90.112 E10.16965
G1 X144.168 Y90.909 E10.18745
G1 X144.353 Y91.321 E10.19646
G1 X144.707 Y92.223 E10.2158
G1 X144.919 Y92.848 E10.22897
G1 X145.189 Y93.788 E10.24848
G1 X145.317 Y94.332 E10.25964
G1 X145.498 Y95.318 E10.27964
G1 X145.576 Y95.902 E10.2914
G1 X145.66 Y96.899 E10.31137
G1 X145.682 Y97.534 E10.32405
G1 X145.671 Y98.468 E10.34269
G1 X145.579 Y100.084 E10.37499
G1 X145.517 Y100.976 E10.39283
G1 X145.413 Y103.535 E10.44394
G1 X145.382 Y106.034 E10.49381
G1 X145.423 Y108.58 E10.54463
G1 X145.603 Y112.208 E10.61712
G1 X145.653 Y113.002 E10.633
G1 X145.682 Y113.831 E10.64955
G1 X145.671 Y114.769 E10.66827
G1 X145.579 Y116.384 E10.70055
G1 X145.517 Y117.276 E10.71839
G1 X145.413 Y119.835 E10.7695
G1 X145.382 Y122.334 E10.81938
G1 X145.423 Y124.88 E10.87019
G1 X145.603 Y128.508 E10.94268
G1 X145.653 Y129.302 E10.95856
G1 X145.682 Y130.131 E10.97511
G1 X145.664 Y131.185 E10.99615
G1 X145.622 Y131.798 E11.00841
G1 X145.488 Y132.889 E11.03035
G1 X145.399 Y133.389 E11.04048
G1 X145.208 Y134.248 E11.05804
G1 X145.057 Y134.81 E11.06966
G1 X144.777 Y135.69 E11.08809
G1 X144.557 Y136.287 E11.10078
G1 X144.261 Y137.005 E11.11628
G1 X143.542 Y138.577 E11.15078
G1 X142.509 Y140.944 E11.20232
G1 X141.541 Y143.346 E11.254
G1 X141.035 Y144.684 E11.28254
G1 X140.61 Y145.654 E11.30368
G1 X140.239 Y146.362 E11.31963
G1 X139.964 Y146.846 E11.33074
G1 X139.484 Y147.611 E11.34876
G1 X138.938 Y148.33 E11.36678
G1 X138.33 Y148.998 E11.3848
G1 X137.666 Y149.61 E11.40282
G1 X136.95 Y150.16 E11.42084
G1 X136.279 Y150.592 E11.43677
G1 X135.562 Y151.015 E11.45338
G1 X134.764 Y151.439 E11.47141
G1 X133.933 Y151.791 E11.48942
G1 X133.073 Y152.068 E11.50745
G1 X132.192 Y152.268 E11.52548
G1 X131.297 Y152.389 E11.5435
G1 X130.578 Y152.428 E11.55787
G1 X129.403 Y152.449 E11.58133
G1 X105.279 Y152.448 E12.06275
G1 X104.55 Y152.438 E12.0773
G1 X103.649 Y152.386 E12.09531
G1 X102.755 Y152.254 E12.11334
G1 X101.877 Y152.043 E12.13136
G1 X100.656 Y151.607 E12.15723
G1 X100.173 Y151.399 E12.16773
G1 X99.36 Y151.006 E12.18575
G1 X98.585 Y150.542 E12.20378
G1 X97.854 Y150.011 E12.22181
G1 X97.05 Y149.298 E12.24325
G1 X96.589 Y148.844 E12.25616
G1 X95.974 Y148.183 E12.27418
G1 X95.42 Y147.47 E12.2922
G1 X94.932 Y146.71 E12.31022
G1 X94.401 Y145.665 E12.33361
G1 X93.983 Y144.688 E12.35482
G1 X92.942 Y142.001 E12.41233
G1 X91.963 Y139.681 E12.46258
G1 X90.657 Y136.809 E12.52554
G1 X90.343 Y136.034 E12.54223
G1 X90.231 Y135.722 E12.54884
G1 X90.046 Y135.157 E12.56071
G1 X89.907 Y134.685 E12.57053
G1 X89.702 Y133.863 E12.58743
G1 X89.594 Y133.339 E12.59811
G1 X89.48 Y132.679 E12.61148
G1 X89.43 Y132.318 E12.61875
G1 X89.352 Y131.52 E12.63475
G1 X89.333 Y131.198 E12.64119
G1 X89.315 Y130.501 E12.6551
G1 X89.321 Y129.861 E12.66787
G1 X89.339 Y129.357 E12.67794
G1 X89.385 Y128.6 E12.69307
G1 X89.434 Y127.978 E12.70552
G1 X89.56 Y125.472 E12.7556
G1 X89.616 Y122.903 E12.80687
G1 X89.6 Y120.369 E12.85744
G1 X89.512 Y117.844 E12.90786
G1 X89.411 Y116.33 E12.93814
G1 X89.407 Y116.144 E12.94186
G1 X89.333 Y114.9 E12.96673
G1 X89.315 Y114.201 E12.98068
G1 X89.321 Y113.561 E12.99345
G1 X89.339 Y113.057 E13.00352
G1 X89.385 Y112.3 E13.01865
G1 X89.434 Y111.678 E13.0311
G1 X89.56 Y109.172 E13.08118
G1 X89.616 Y106.603 E13.13246
G1 X89.6 Y104.069 E13.18303
G1 X89.512 Y101.544 E13.23345
G1 X89.411 Y100.03 E13.26373
G1 X89.407 Y99.844 E13.26744
G1 X89.333 Y98.6 E13.29231
G1 X89.315 Y97.975 E13.30479
G1 X89.316 Y97.501 E13.31424
G1 X89.359 Y96.588 E13.33248
G1 X89.416 Y95.969 E13.34489
G1 X89.558 Y94.97 E13.36503
G1 X89.664 Y94.421 E13.37618
G1 X89.893 Y93.478 E13.39555
G1 X90.06 Y92.91 E13.40736
G1 X90.399 Y91.941 E13.42785
G1 X90.638 Y91.354 E13.4405
G1 X91.044 Y90.479 E13.45975
G1 X91.291 Y90.006 E13.4704
G1 X91.783 Y89.164 E13.48986
G1 X92.15 Y88.6 E13.50329
G1 X92.823 Y87.681 E13.52602
